X:114
T:Darin in the Woodpile
C:Pete martin
N:Copyright Pete martin - 8/18/99 Transcribed by Mike Stangeland
R:bluegrass
L:1/8
Q:1/4=232
M:4/4
K:Bb
z6 de |: "Bb"fB de =ef ga | bf dB DF Bd | "Eb"fB de =ef gb | ag f=e _ec de | "Bb"fB de =ef ga | 
bf dB DF Bd | "F"eg f=e _eF =E_E |1 "F"De d[cD] "Bb"[B2D2] de :|2 "F"De d[cD] "Bb"[B2D2] Bc | 
|: "Bb"dB FB DF Bd | "F"ec EF AB cd | ec CF Ac eg | "Bb"fB df Bc de | fB de =ef ga | 
"Eb"bf dB DF Bd | "F"eg f=e _eF =E_E |1 De d[cD] "Bb"[B2D2] Bc :|2 De d[cD] "Bb"[B4D4] | 


